X: 44
T: Sunflower Slow Drag
%%abc-version 2.0
%%abcx-abcm2ps-target-version 5.9.1 (29 Sep 2008)
%%abc-creator hum2abc beta
%%abcx-conversion-date 2021/07/20 09:00:58
%%abc-copyright 2021 Craig Stuart Sapp
%%abc-edited-by Craig Stuart Sapp
%%abc-edited-by Craig Stuart Sapp
%%abcx-initial-encoding-date 2004/11/28/
%%humdrum-veritas 1230932559
%%humdrum-veritas-data 627915099
%%removed 0's from note length
%%linebreak <none>
%%barnumbers 0
L: 1/8
M: 2/4
N: Derived from sunflower.krn
Q: "INTRO. Not fast." 1/4=88
%%staves {1 2}
V: 1 clef=treble
V: 2 clef=bass
K: Bb
[V:1] d/fB/d2 | 
[V:2] D/FB,/D2 | 
[V:1] G/A/B/D/-D2 | 
[V:2] G,/A,/B,/D,/-D,2 | 
[V:1] E/F/G/E/ D/CF/ | 
[V:2] E,/F,/G,/E,/ D,/C,F,/ | 
[V:1] F, !accent![fF]!accent![gG]!accent![aA] ]|:  
[V:2] F,, !accent![F,F,,]!accent![E,E,,]!accent![C,C,,] ]|:  
[V:1] [b/B/]d/f/[a/A/]- [a/A/][gG][d/B/] | 
[V:2] !accent![B,,B,,,][DB,F,] F,,[DB,F,] | 
[V:1] [f/F/][d/B/][g/G/][f/F/]- [f/F/]d/B/F/ | 
[V:2] B,,[DB,F,] D,[DB,F,] | 
[V:1] g/G/^G/A/ B/=g/=G/=e/ | 
[V:2] [EE,][B,B,,] [CC,][^C^C,] | 
[V:1] f/F/d/[g/G/]- [g/G/][aA][f/_e/] | 
[V:2] [DD,][F,F,,] [E,E,,][C,C,,] | 
[V:1] [b/B/]d/f/[a/A/]- [a/A/][gG][d/B/] | 
[V:2] !accent![B,,B,,,][DB,F,] F,,[DB,F,] | 
[V:1] [f/F/][d/B/][g/G/][f/F/]- [f/F/]d/B/F/ | 
[V:2] B,,[DB,F,] D,_D, | 
[V:1] c/=B/c/d/ c/_B/A/G/ | 
[V:2] C,[FCA,] C,[=ECB,G,] | 
[V:1] F/c/_e/[g/G/]- [g/G/][aA][f/e/] | 
[V:2] [CA,F,]!accent![F,F,,] !accent![_E,_E,,]!accent![C,C,,] | 
[V:1] [b/B/]d/f/[a/A/]- [a/A/][gG][d/B/] | 
[V:2] !accent![=B,,B,,,][DB,F,] F,,[DB,F,] | 
[V:1] [f/F/][d/B/][g/G/][f/F/]- [f/F/]d/B/F/ | 
[V:2] B,,[DB,F,] D,[DB,F,] | 
[V:1] g/G/^G/A/ B/=g/=G/=e/ | 
[V:2] [EE,][B,B,,] [CC,][^CC,] | 
[V:1] [f/F/][d/B/][g/G/][a/A/]- [a/A/][gG][e/B/] | 
[V:2] [DD,][EE,] [FF,][EE,] | 
[V:1] [f/F/][d/B/][g/G/][f/F/]- [f/F/]d/=B/G/ | 
[V:2] [DD,][DB,F,] G,,[FD=B,G,] | 
[V:1] [d=E][cD] [d_E][cE] |[1 
[V:2] [B,G,C,][B,G,C,] [A,F,][A,F,] | 
[V:1] [B4D4-] | 
[V:2] [B,B,,][F,/F,,/][G,/G,,/]- [G,/G,,/][F,/F,,/][D,/D,,/][C,/C,,/] | 
[V:1] [BD]!accent![fF] !accent![gG]!accent![aA] :|][2 
[V:2] [B,,B,,,]!accent![F,F,,] !accent![E,E,,]!accent![C,C,,] :|]  
[V:1] [B4D4-] | 
[V:2] [B,B,,][F,/F,,/][G,/G,,/]- [G,/G,,/][F,/F,,/][D,/D,,/][C,/C,,/] | 
[V:1] [BD] zz2 ]|: 
[V:2] [B,,B,,,][F,F,,] [G,G,,][^G,^G,,] ]|:  
[V:1] z [geA][geA][geA] | 
[V:2] !accent![A,A,,][ECF,] F,,[ECF,] | 
[V:1] [f/e/A/][aeA][g/e/A/]- [g/e/A/]f/e/c/ | 
[V:2] C,[ECF,] F,,[ECF,] | 
[V:1] B[gdB] [gdB][gdB] | 
[V:2] B,,[DB,F,] F,,[DB,F,] | 
[V:1] [f/d/B/][bdB][g/d/B/]- [g/d/B/]d/f/[b/B/] | 
[V:2] B,,[DB,F,] F,,[DB,F,] | 
[V:1] [aeA][^g/e/^G/][a/e/A/]- [a/e/A/][bB]f/ | 
[V:2] C,[ECF,] F,,[ECF,] | 
[V:1] [c'ec][=b/=B/][c'/e/c/]- [c'/e/c/][^c'^c]f/ | 
[V:2] A,,[EA,F,] F,,[EA,F,] | 
[V:1] [d'/d/]B/d/f/ [a/^c/A/][gcG][f/d/F/]- | 
[V:2] B,,[DB,F,] [^CB,=E,][CB,E,] | 
[V:1] [f4d4F4] | 
[V:2] [DB,F,][F,F,,] [G,G,,][^G,^G,,] | 
[V:1] z [geA][geA][geA] | 
[V:2] !accent![A,A,,][ECF,] F,,[ECF,] | 
[V:1] [f/e/A/][aeA][g/e/A/]- [g/e/A/]f/e/c/ | 
[V:2] C,[ECF,] F,,[ECF,] | 
[V:1] B[gdB] [gdB][gdB] | 
[V:2] B,,[DB,F,] F,,[DB,F,] | 
[V:1] [g/d/B/][fdB][f/d/B/]- [f/d/B/]B/d/f/ | 
[V:2] B,,[DB,F,] D,[DB,_A,F,] | 
[V:1] [gG][bB] [aA][gG] | 
[V:2] [EB,G,E,][G,G,,] [F,F,,][E,E,,] | 
[V:1] [f/F/][d/B/][g/G/][f/F/]- [f/F/]d/=B/G/ | 
[V:2] [D,D,,][DB,F,] G,,[FD=B,G,] | 
[V:1] [d=E][cE] [d_E][cE] |[1 
[V:2] [_B,G,C,][B,G,C,] [A,F,][A,F,] | 
[V:1] [B4D4] :|][2 
[V:2] [B,B,,][F,F,,] [G,G,,][^G,^G,,] :|]  
[V:1] [BD]!accent![fF] !accent![gG]!accent![aA] | 
[V:2] [B,B,,]!accent![F,F,,] !accent![E,E,,]!accent![C,C,,] | 
[V:1] [b/B/]d/f/[a/A/]- [a/A/][gG][d/B/] | 
[V:2] !accent![B,,B,,,][DB,F,] F,,[DB,F,] | 
[V:1] [f/F/][d/B/][g/G/][f/F/]- [f/F/]d/B/F/ | 
[V:2] B,,[DB,F,] D,[DB,F,] | 
[V:1] g/G/^G/A/ B/=g/=G/=e/ | 
[V:2] [EE,][B,B,,] [CC,][^CC,] | 
[V:1] f/F/d/[g/G/]- [g/G/][aA][f/_e/] | 
[V:2] [DD,]!accent![F,F,,] !accent![E,E,,]!accent![C,C,,] | 
[V:1] [b/B/]d/f/[a/A/]- [a/A/][gG][d/B/] | 
[V:2] !accent![B,,B,,,][DB,F,] F,,[DB,F,] | 
[V:1] [f/F/][d/B/][g/G/][f/F/]- [f/F/]d/B/F/ | 
[V:2] B,,[DB,F,] D,_D, | 
[V:1] c/=B/c/d/ c/_B/A/G/ | 
[V:2] C,[FCA,] C,[=ECB,G,] | 
[V:1] F/c/_e/[g/G/]- [g/G/][aA][f/e/] | 
[V:2] [CA,F,]!accent![F,F,,] !accent![E,E,,]!accent![C,C,,] | 
[V:1] [b/B/]d/f/[a/A/]- [a/A/][gG][d/B/] | 
[V:2] !accent![B,,B,,,][DB,F,] F,,[DB,F,] | 
[V:1] [f/F/][d/B/][g/G/][f/F/]- [f/F/]d/B/F/ | 
[V:2] B,,[DB,F,] D,[DB,F,] | 
[V:1] g/G/^G/A/ B/=g/=G/=e/ | 
[V:2] [EE,][B,B,,] [CC,][^C^C,] | 
[V:1] [f/F/][d/B/][g/G/][a/A/]- [a/A/][gG][e/B/] | 
[V:2] [DD,][EE,] [FF,][EE,] | 
[V:1] [f/F/][d/B/][g/G/][f/F/]- [f/F/]d/=B/G/ | 
[V:2] [DD,][DB,F,] F,,[FD=B,G,] | 
[V:1] [d=E][cE] [d_E][cE] | 
[V:2] [_B,G,C,][B,G,C,] [A,F,][A,F,] | 
[V:1] [B4D4]- | 
[V:2] [B,B,,][F,/F,,/][G,/G,,/]- [G,/G,,/][F,/F,,/][D,/D,,/][C,/C,,/] | 
[V:1] [BD] z [bfdB] z ||  
[V:2] [B,,B,,,] z [B,,B,,,] z ||  
[V:1]  [K:Eb] [d/A/F/][dAF][_d/A/F/] [c/A/F/][c/A/F/][_c/A/F/][B/A/F/]- | 
[V:2]  [K:Eb] [B,,B,,,][=B,,=B,,,] [C,C,,][^C,^C,,] | 
[V:1] [BAF][f/A/]B/ [f/A/]B/[f/A/]B/ & x A A A | 
[V:2] [D,D,,][_B,,_B,,,] [=C,=C,,][D,D,,] | 
[V:1] [e4G4] | 
[V:2] [E,E,,][G,/G,,/][A,/A,,/] [=A,/=A,,/][B,/B,,/][C/C,/][D/D,/] | 
[V:1] [eG] zz2 ]|:  
[V:2] [EE,][B,,B,,,] [G,,G,,,][_G,,_G,,,] ]|:  
[V:1] [d=AE][c/A/E/][d/A/E/]- [d/A/E/]c/A/F/ | 
[V:2] [F,,2F,,,2][=A,,2=A,,,2] | 
[V:1] [gd_A][f/d/A/][g/d/A/]- [g/d/A/]f/d/B/ | 
[V:2] [B,,2B,,,2][D,2D,,2] | 
[V:1] [f'/f/][b/g/][e'/e/][d'/d/]- [d'/d/][c'c][g/e/] | 
[V:2] [E,E,,][GEB,] B,,[GEB,] | 
[V:1] [b/B/][g/e/][c'/c/][b/B/]- [b/B/]e/g/b/ | 
[V:2] E,[GEB,] G,,[GEB,] | 
[V:1] [e'/e/]a/c'/[e'/e/]- [e'/e/][f'f][e'/e/] | 
[V:2] A,,[AEC] A,,[AE_C] | 
[V:1] [b/B/]e/g/[b/B/]- [b/B/][c'c][b/B/] | 
[V:2] E,[GEB,] [G,G,,][_G,_G,,] | 
[V:1] [f/F/][e'/e/][d'/d/][c'/c/]- [c'/c/][f/F/][g/G/][=a/=A/] | 
[V:2] [F,F,,][DB,F,] F,[E=A,] | 
[V:1] [b3B3]z | 
[V:2] [DB,][B,,B,,,] [G,,G,,,][_G,,_G,,,] | 
[V:1] [d=AE][c/A/E/][d/A/E/]- [d/A/E/]c/A/F/ | 
[V:2] [F,,2F,,,2][=A,,2=A,,,2] | 
[V:1] [gd_A][f/d/A/][g/d/A/]- [g/d/A/]f/d/B/ | 
[V:2] [B,,2B,,,2][D,2D,,2] | 
[V:1] [f'/f/][b/g/][e'/e/][d'/d/]- [d'/d/][c'c][g/e/] | 
[V:2] [E,E,,][GEB,] B,,[GEB,] | 
[V:1] [b/B/][g/e/][c'/c/][b/B/]- [b/B/]e/g/[b/B/] | 
[V:2] E,[GEB,] [G,G,,][GEB,] | 
[V:1] [c'2a2f2c2][c'afc][_c'af_c] | 
[V:2] [A,A,,][AFC] [F,F,,][G,/G,,/][A,/A,,/] | 
[V:1] [b/g/e/B/][g/e/][=c'/=c/][b/B/]- [b/B/]g/=e/c/ | 
[V:2] [B,B,,][GEB,] C,[=ECB,] | 
[V:1] [g=A][fA] [g_A][fA] |[1 
[V:2] [_ECF,][ECF,] [DB,][DB,] | 
[V:1] [e4G4] :|][2 
[V:2] [EE,][B,,B,,,] [G,,G,,,][_G,,_G,,,] :|]  
[V:1] [e2G2][bB][=b=B] ]|: 
[V:2] [EE,][B,B,,][B,,2B,,,2] ]|:  
[V:1] [c'/c/]a/b/[c'/c/]- [c'/c/][^c'^c]a/ | 
[V:2] [F,F,,][ADB,] B,,[ADB,] | 
[V:1] [d'/d/]a/b/[d'/d/]- [d'/d/][g'g][f'/f/] | 
[V:2] F,[ADB,] B,,[ADB,] | 
[V:1] [e'/e/]g/b/[d'/d/]- [d'/d/][c'c][g/e/] | 
[V:2] E,[GEB,] B,,[GEB,] | 
[V:1] [b2B2]-[b/B/][b/B/][c'/c/][d'/d/] | 
[V:2] E,[GEB,] B,,[GEB,] | 
[V:1] [e'/e/]a/b/[d'/d/]- [d'/d/][c'c]d/ | 
[V:2] F,[ADB,] B,,[ADB,] | 
[V:1] [b2B2]-[b/B/][b/B/][c'/c/][d'/d/] | 
[V:2] D,[ADB,] B,,[ADB,] | 
[V:1] [e'/e/]g/b/[d'/d/]- [d'/d/][c'c]e/ | 
[V:2] E,[GEB,] B,,[GEB,] | 
[V:1] [b2B2][baB][=ba=B] | 
[V:2] E,[GEB,][B,,2B,,,2] | 
[V:1] [c'/c/]a/b/[c'/c/]- [c'/c/][^c'^c]a/ | 
[V:2] [F,F,,][ADB,] B,,[ADB,] | 
[V:1] [d'/d/]a/b/[d'/d/]- [d'/d/][g'g][f'/f/] | 
[V:2] F,[ADB,] B,,[ADB,] | 
[V:1] [e'/e/]g/b/[d'/d/]- [d'/d/][c'c][g/e/] | 
[V:2] E,[GEB,] B,,[GEB,] | 
[V:1] [b/B/][g/e/][c'/c/][b/B/]- [b/B/]e/g/[b/B/] | 
[V:2] E,[GEB,] [G,G,,][GEB,] | 
[V:1] [c'2a2f2c2][c'afc][_c'af_c] | 
[V:2] [A,A,,][AFC] [F,F,,][G,/G,,/][A,/A,,/] | 
[V:1] [b/g/e/B/][g/e/][=c'/=c/][b/B/]- [b/B/]g/=e/c/ | 
[V:2] [B,B,,][GEB,] C,[=ECB,] | 
[V:1] [g=A][fA] [g_A][fA] |[1 
[V:2] [_ECF,][ECF,] [DB,][DB,] | 
[V:1] [e2G2][baB][=ba=B] :|][2 
[V:2] [EE,][B,B,,]!accent![B,,2B,,,2] :|]  
[V:1] [e2G2][e'bge] z |]  
[V:2] [EE,][B,B,,] [E,E,,] z |]  


